src/img/mail.svg

<svg width="204" height="204" viewBox="0 0 204 204" fill="none" xmlns="http://www.w3.org/2000/svg">
<g opacity="0.1">
<path d="M203.957 77.9858C203.936 77.7515 203.89 77.52 203.818 77.2957C203.771 77.0952 203.706 76.8996 203.624 76.7107C203.529 76.5262 203.415 76.3517 203.284 76.1903C203.153 75.9987 203.002 75.8222 202.832 75.6632C202.778 75.6158 202.754 75.5508 202.696 75.5034L169.997 50.1079V23.7876C169.997 18.1542 165.43 13.5871 159.797 13.5871H122.949L108.196 2.13193C104.551 -0.710644 99.44 -0.710644 95.7953 2.13193L81.0385 13.5871H44.191C38.5577 13.5871 33.9906 18.1538 33.9906 23.7876V50.1083L1.30175 75.5038C1.24398 75.5516 1.22007 75.6162 1.16588 75.6636C0.996536 75.8222 0.844724 75.9991 0.713633 76.1908C0.582939 76.3521 0.468981 76.5262 0.373751 76.7111C0.29127 76.8996 0.226721 77.0956 0.180102 77.2961C0.109177 77.5172 0.0625574 77.7451 0.0406424 77.9762C0.0406424 78.0475 0 78.1089 0 78.1802V193.795C0.00478146 195.958 0.704468 198.061 1.99586 199.796C2.01618 199.827 2.01977 199.864 2.04328 199.891C2.06718 199.918 2.11819 199.949 2.15205 199.986C4.06225 202.5 7.03313 203.982 10.1901 203.995H193.798C196.967 203.986 199.951 202.497 201.863 199.97C201.89 199.936 201.931 199.925 201.955 199.891C201.979 199.858 201.982 199.827 202.003 199.796C203.294 198.061 203.994 195.958 203.999 193.795V78.1898C203.998 78.1185 203.961 78.0571 203.957 77.9858ZM99.9536 7.49713C101.141 6.55359 102.822 6.55359 104.01 7.49713L111.854 13.5867H92.1331L99.9536 7.49713ZM11.0468 197.195L99.954 128.135C101.142 127.193 102.822 127.193 104.01 128.135L192.941 197.195H11.0468ZM197.198 191.894L108.196 122.769C104.55 119.929 99.4408 119.929 95.7953 122.769L6.78967 191.894V83.3681L62.508 126.635C63.9926 127.786 66.1292 127.516 67.2803 126.031C68.4314 124.547 68.1613 122.41 66.6766 121.259L10.0709 77.3056L33.991 58.7169V84.9898C33.991 86.8677 35.5135 88.3898 37.391 88.3898C39.2689 88.3898 40.791 86.8673 40.791 84.9898V23.7872C40.791 21.9092 42.3131 20.3871 44.191 20.3871H159.796C161.674 20.3871 163.196 21.9092 163.196 23.7872V84.9898C163.196 86.8677 164.718 88.3898 166.596 88.3898C168.474 88.3898 169.996 86.8673 169.996 84.9898V58.7169L193.916 77.3056L137.212 121.338C136.236 122.077 135.733 123.283 135.895 124.497C136.057 125.71 136.858 126.743 137.993 127.201C139.128 127.658 140.422 127.471 141.381 126.71L197.197 83.3681V191.894H197.198Z" fill="#F59E27"/>
<path d="M142.795 81.5897V67.9893C142.795 45.4551 124.528 27.1875 101.994 27.1875C79.4595 27.1875 61.1919 45.4551 61.1919 67.9893C61.1919 90.5235 79.4595 108.791 101.994 108.791C103.872 108.791 105.394 107.269 105.394 105.391C105.394 103.513 103.872 101.991 101.994 101.991C83.2153 101.991 67.9923 86.7681 67.9923 67.9897C67.9923 49.2113 83.2153 33.9883 101.994 33.9883C120.772 33.9883 135.995 49.2113 135.995 67.9897V81.5901C135.995 85.346 132.95 88.3906 129.195 88.3906C125.439 88.3906 122.394 85.346 122.394 81.5901V67.9897C122.394 66.1118 120.872 64.5897 118.994 64.5897C117.116 64.5897 115.594 66.1118 115.594 67.9897C115.594 75.5009 109.505 81.5901 101.994 81.5901C94.4824 81.5901 88.3932 75.5009 88.3932 67.9897C88.3932 60.4784 94.4824 54.3892 101.994 54.3892C103.872 54.3892 105.394 52.8671 105.394 50.9892C105.394 49.1113 103.872 47.5892 101.994 47.5892C92.8631 47.5689 84.8306 53.6178 82.3283 62.399C79.826 71.1801 83.4627 80.5545 91.2326 85.3503C99.0025 90.1462 109.012 89.1954 115.74 83.0222C116.481 90.2127 122.73 95.5592 129.949 95.177C137.168 94.7945 142.818 88.8185 142.795 81.5897Z" fill="#F59E27"/>
</g>
</svg>

<svg width="204" height="204" fill="none" xmlns="http://www.w3.org/2000/svg"><g opacity=".1" fill="#F59E27"><path d="M203.957 77.986a3.188 3.188 0 0 0-.139-.69 3.44 3.44 0 0 0-.194-.585 3.02 3.02 0 0 0-.34-.52 3.172 3.172 0 0 0-.452-.528c-.054-.047-.078-.112-.136-.16l-32.699-25.395v-26.32c0-5.634-4.567-10.2-10.2-10.2h-36.848L108.196 2.131a10.082 10.082 0 0 0-12.4 0L81.037 13.587H44.191c-5.633 0-10.2 4.567-10.2 10.2v26.321L1.3 75.504c-.057.048-.08.112-.135.16-.17.158-.321.335-.452.527a3.03 3.03 0 0 0-.34.52 3.354 3.354 0 0 0-.194.585c-.07.221-.117.45-.14.68 0 .072-.04.133-.04.204v115.615a10.086 10.086 0 0 0 1.996 6.001c.02.031.024.068.047.095.024.027.075.058.109.095a10.148 10.148 0 0 0 8.038 4.009h183.608a10.15 10.15 0 0 0 8.065-4.025c.027-.034.068-.045.092-.079.024-.033.027-.064.048-.095a10.09 10.09 0 0 0 1.996-6.001V78.19c-.001-.072-.038-.133-.042-.204zM99.954 7.497a3.26 3.26 0 0 1 4.056 0l7.844 6.09h-19.72l7.82-6.09zM11.047 197.195l88.907-69.06a3.264 3.264 0 0 1 4.056 0l88.931 69.06H11.047zm186.151-5.301l-89.002-69.125a10.09 10.09 0 0 0-12.4 0L6.79 191.894V83.368l55.718 43.267a3.401 3.401 0 1 0 4.169-5.376L10.07 77.306l23.92-18.59V84.99a3.4 3.4 0 0 0 6.8 0V23.787a3.4 3.4 0 0 1 3.4-3.4h115.605a3.4 3.4 0 0 1 3.4 3.4V84.99a3.4 3.4 0 1 0 6.8 0V58.717l23.92 18.589-56.704 44.032a3.398 3.398 0 0 0 .781 5.863 3.405 3.405 0 0 0 3.388-.491l55.816-43.342v108.526h.001z"/><path d="M142.795 81.59v-13.6c0-22.535-18.267-40.802-40.801-40.802-22.534 0-40.802 18.267-40.802 40.801 0 22.534 18.268 40.802 40.802 40.802a3.4 3.4 0 1 0 0-6.8c-18.779 0-34.002-15.223-34.002-34.001 0-18.779 15.223-34.002 34.002-34.002 18.778 0 34.001 15.223 34.001 34.002v13.6a6.8 6.8 0 0 1-13.601 0v-13.6a3.4 3.4 0 1 0-6.8 0c0 7.51-6.089 13.6-13.6 13.6-7.512 0-13.6-6.09-13.6-13.6 0-7.512 6.088-13.6 13.6-13.6a3.4 3.4 0 1 0 0-6.8 20.401 20.401 0 1 0 13.746 35.432c.741 7.19 6.99 12.537 14.209 12.155 7.219-.383 12.869-6.359 12.846-13.587z"/></g></svg>
